assets/img/braze_icons/layers-three-02.svg

<svg fill="none" height="24" viewBox="0 0 24 24" width="24" xmlns="http://www.w3.org/2000/svg"><g fill="#801ed7"><path clip-rule="evenodd" d="m11.7234 1.0848c.1828-.03429.3704-.03429.5532 0 .2164.04061.4095.13914.5028.18675.0096.00491.0182.00927.0256.01297l9.6422 4.82112c.3388.16939.5528.51565.5528.89442 0 .37878-.214.72504-.5528.89443l-9.6422 4.82111c-.0074.0037-.016.0081-.0256.013-.0933.0476-.2864.1461-.5028.1867-.1828.0343-.3704.0343-.5532 0-.2164-.0406-.4095-.1391-.5028-.1867-.0096-.0049-.0182-.0093-.0256-.013l-9.64221-4.82111c-.33879-.16939-.55279-.51565-.55279-.89443 0-.37877.214-.72503.55279-.89442l9.64221-4.82112c.0074-.0037.016-.00807.0256-.01297.0933-.04761.2864-.14614.5028-.18675z" fill-rule="evenodd"/><path d="m2.52769 10.6181-.9749.4874c-.33879.1694-.55279.5157-.55279.8945 0 .3787.214.725.55279.8944l9.64221 4.8211.0256.013c.0933.0476.2864.1461.5028.1867.1828.0343.3704.0343.5532 0 .2164-.0406.4095-.1391.5028-.1867l.0256-.013 9.6422-4.8211c.3388-.1694.5528-.5157.5528-.8944 0-.3788-.214-.7251-.5528-.8945l-.9749-.4874-7.7729 3.8864-.0118.0059c-.0488.0246-.1689.0848-.2891.1371-.1603.0698-.42.1711-.7531.2336-.4265.08-.8643.08-1.2908 0-.3331-.0625-.5928-.1638-.7531-.2336-.1202-.0523-.2403-.1125-.2891-.1371l-.0118-.0059z"/><path d="m2.52784 15.618-.97505.4875c-.33879.1694-.55279.5157-.55279.8945 0 .3787.214.725.55279.8944l9.64221 4.8211.0256.013c.0933.0476.2864.1461.5028.1867.1828.0343.3704.0343.5532 0 .2164-.0406.4095-.1391.5028-.1867l.0256-.013 9.6422-4.8211c.3388-.1694.5528-.5157.5528-.8944 0-.3788-.214-.7251-.5528-.8945l-.975-.4875-7.7728 3.8864-.0118.0059c-.0488.0245-.1689.0848-.2891.1371-.1603.0698-.42.1711-.7531.2336-.4265.08-.8643.08-1.2908 0-.3331-.0625-.5928-.1638-.7531-.2336-.1202-.0523-.2403-.1126-.2891-.1371l-.0118-.0059z"/></g></svg>

<svg width="24" height="24" viewBox="0 0 24 24" fill="none" xmlns="http://www.w3.org/2000/svg">
<path fill-rule="evenodd" clip-rule="evenodd" d="M11.7234 1.0848C11.9062 1.05051 12.0938 1.05051 12.2766 1.0848C12.493 1.12541 12.6861 1.22394 12.7794 1.27155C12.789 1.27646 12.7976 1.28082 12.805 1.28452L22.4472 6.10564C22.786 6.27503 23 6.62129 23 7.00006C23 7.37884 22.786 7.7251 22.4472 7.89449L12.805 12.7156C12.7976 12.7193 12.789 12.7237 12.7794 12.7286C12.6861 12.7762 12.493 12.8747 12.2766 12.9153C12.0938 12.9496 11.9062 12.9496 11.7234 12.9153C11.507 12.8747 11.3139 12.7762 11.2206 12.7286C11.211 12.7237 11.2024 12.7193 11.195 12.7156L1.55279 7.89449C1.214 7.7251 1 7.37884 1 7.00006C1 6.62129 1.214 6.27503 1.55279 6.10564L11.195 1.28452C11.2024 1.28082 11.211 1.27645 11.2206 1.27155C11.3139 1.22394 11.507 1.12541 11.7234 1.0848Z" fill="#801ED7"/>
<path d="M2.52769 10.6181L1.55279 11.1055C1.214 11.2749 1 11.6212 1 12C1 12.3787 1.214 12.725 1.55279 12.8944L11.195 17.7155L11.2206 17.7285C11.3139 17.7761 11.507 17.8746 11.7234 17.9152C11.9062 17.9495 12.0938 17.9495 12.2766 17.9152C12.493 17.8746 12.6861 17.7761 12.7794 17.7285L12.805 17.7155L22.4472 12.8944C22.786 12.725 23 12.3787 23 12C23 11.6212 22.786 11.2749 22.4472 11.1055L21.4723 10.6181L13.6994 14.5045L13.6876 14.5104C13.6388 14.535 13.5187 14.5952 13.3985 14.6475C13.2382 14.7173 12.9785 14.8186 12.6454 14.8811C12.2189 14.9611 11.7811 14.9611 11.3546 14.8811C11.0215 14.8186 10.7618 14.7173 10.6015 14.6475C10.4813 14.5952 10.3612 14.535 10.3124 14.5104L10.3006 14.5045L2.52769 10.6181Z" fill="#801ED7"/>
<path d="M2.52784 15.618L1.55279 16.1055C1.214 16.2749 1 16.6212 1 17C1 17.3787 1.214 17.725 1.55279 17.8944L11.195 22.7155L11.2206 22.7285C11.3139 22.7761 11.507 22.8746 11.7234 22.9152C11.9062 22.9495 12.0938 22.9495 12.2766 22.9152C12.493 22.8746 12.6861 22.7761 12.7794 22.7285L12.805 22.7155L22.4472 17.8944C22.786 17.725 23 17.3787 23 17C23 16.6212 22.786 16.2749 22.4472 16.1055L21.4722 15.618L13.6994 19.5044L13.6876 19.5103C13.6388 19.5348 13.5187 19.5951 13.3985 19.6474C13.2382 19.7172 12.9785 19.8185 12.6454 19.881C12.2189 19.961 11.7811 19.961 11.3546 19.881C11.0215 19.8185 10.7618 19.7172 10.6015 19.6474C10.4813 19.5951 10.3612 19.5348 10.3124 19.5103L10.3006 19.5044L2.52784 15.618Z" fill="#801ED7"/>
</svg>
